images/capabilities/delivery.svg

<svg width="136" height="165" viewBox="0 0 136 165" fill="none" xmlns="http://www.w3.org/2000/svg">
<g clip-path="url(#clip0_2867_233)">
<path d="M93.1329 39.2671C101.254 39.2671 108.078 33.7251 110.033 26.2181L115.5 27.0321C115.607 27.0481 115.715 27.0561 115.82 27.0561C116.871 27.0561 117.791 26.2861 117.951 25.2161C118.127 24.0381 117.312 22.9401 116.135 22.7651L110.594 21.9401C110.596 21.8941 110.598 21.8491 110.598 21.8021C110.598 21.6201 110.592 21.4401 110.584 21.2601C110.584 21.2601 110.133 14.7421 109.51 12.0231C108.889 9.30406 106.975 8.72706 106.975 8.72706C97.2049 6.51506 87.2029 6.28906 84.5999 6.28906C81.9969 6.28906 81.4419 7.62106 81.4419 7.62106L78.2919 12.6171L78.2819 12.6141C78.2059 12.7361 78.136 12.8591 78.063 12.9821L78.0359 13.0251C76.5339 15.6051 75.6689 18.6011 75.6689 21.8021C75.6679 31.4481 83.4879 39.2671 93.1329 39.2671Z" fill="white"/>
<path d="M131.535 78.576V78.574L104.793 76.406L95.5469 55.294C95.5469 55.294 95.0859 52.52 89.5389 46.818C83.9899 41.116 72.7399 43.428 72.7399 43.428C72.7399 43.428 48.8539 47.897 40.9949 49.746C33.1349 51.596 32.8269 59.609 32.8269 59.609L32.1949 64.128L17.0169 61.187C16.8259 61.15 16.6359 61.132 16.4489 61.132C15.0419 61.132 13.7779 62.132 13.5009 63.561L6.08995 101.803C5.77595 103.423 6.84395 105.005 8.46495 105.319L59.6609 115.242C59.7759 115.264 59.8909 115.266 60.0069 115.275H60.0089C59.2809 115.379 58.7179 115.24 58.7179 115.24L49.3179 113.391L46.2359 130.496L22.6759 150.859C20.9749 152.22 19.8839 154.312 19.8839 156.66C19.8839 160.764 23.2099 164.09 27.3129 164.09C29.3479 164.09 31.1909 163.272 32.5329 161.945C32.5329 161.945 60.2579 139.895 62.1079 138.354C63.9579 136.814 64.8809 134.501 64.8809 134.501C64.8809 134.501 69.422 120.553 70.66 117.627C71.5079 115.623 75.5919 116.548 75.5919 116.548L98.4769 125.179L106.092 154.241C106.174 154.871 106.334 155.475 106.565 156.045H106.567C107.665 158.773 110.337 160.699 113.456 160.699C117.56 160.699 120.886 157.372 120.886 153.269C120.886 152.67 120.814 152.09 120.679 151.533C119.837 146.568 116.075 124.487 115.118 119.707C114.04 114.313 110.497 112.773 110.497 112.773C110.497 112.773 89.229 101.215 87.8429 100.444C86.4559 99.674 86.7649 97.67 86.7649 97.67L90.6949 83.339L93.4679 89.195C93.4679 89.195 95.087 92.469 97.5519 92.586L130.909 93.406C135.013 93.406 138.339 90.08 138.339 85.975C138.338 82.086 135.346 78.896 131.535 78.576ZM60.1039 63.307L58.3149 69.187L68.2129 71.106L47.9989 67.189L48.5469 64.693L60.1039 63.307ZM57.8549 108.78L12.5509 99.999L18.8209 67.646L31.3629 70.077L29.7449 81.644L29.1049 86.05C29.0999 86.076 29.0969 86.106 29.0929 86.132L29.0749 86.259H29.0769C29.0369 86.571 29.0139 86.888 29.0139 87.21C29.0139 91.314 32.3409 94.639 36.4439 94.639C40.5469 94.639 43.8729 91.314 43.8729 87.21C43.8729 86.892 43.8519 86.58 43.8119 86.273L46.7129 73.05L64.1259 76.424L57.8549 108.78Z" fill="white"/>
<path d="M25.05 17.5081H63.077C64.177 17.5081 65.0771 16.6121 65.0771 15.5181C65.0771 14.4241 64.177 13.5281 63.077 13.5281H25.05C23.95 13.5281 23.05 14.4241 23.05 15.5181C23.05 16.6121 23.95 17.5081 25.05 17.5081Z" fill="white"/>
<path d="M38.0798 23.5249C36.9798 23.5249 36.0798 24.4209 36.0798 25.5149C36.0798 26.6089 36.9798 27.5049 38.0798 27.5049H61.0388C62.1388 27.5049 63.0388 26.6089 63.0388 25.5149C63.0388 24.4199 62.1388 23.5249 61.0388 23.5249H38.0798Z" fill="white"/>
<path d="M87.0981 33.2319C95.2191 33.2319 102.043 27.6899 103.998 20.1829L109.465 20.9969C109.572 21.0129 109.68 21.0209 109.785 21.0209C110.836 21.0209 111.756 20.2509 111.916 19.1809C112.092 18.0029 111.277 16.9049 110.1 16.7299L104.559 15.9049C104.561 15.8589 104.563 15.8139 104.563 15.7669C104.563 15.5849 104.557 15.4049 104.549 15.2249C104.549 15.2249 104.098 8.70691 103.475 5.98791C102.854 3.26891 100.94 2.69191 100.94 2.69191C91.1701 0.479906 81.1681 0.253906 78.5641 0.253906C75.9601 0.253906 75.4061 1.58591 75.4061 1.58591L72.2561 6.58191L72.2461 6.57891C72.1701 6.69991 72.1001 6.82391 72.0271 6.94691L72.0001 6.98991C70.4981 9.56991 69.6331 12.5659 69.6331 15.7669C69.6331 25.4129 77.4531 33.2319 87.0981 33.2319Z" fill="#3A3A3A"/>
<path d="M125.5 72.5411V72.5391L98.7579 70.3711L89.5119 49.2591C89.5119 49.2591 89.0509 46.4851 83.5039 40.7831C77.9549 35.0811 66.7049 37.3931 66.7049 37.3931C66.7049 37.3931 42.8189 41.8621 34.9599 43.7101C27.0999 45.5601 26.7919 53.5731 26.7919 53.5731L23.7099 75.6091L23.0699 80.0151C23.0649 80.0411 23.0619 80.0711 23.0579 80.0971L23.0399 80.2241H23.0419C23.0019 80.5361 22.9789 80.8531 22.9789 81.1751C22.9789 85.2791 26.3059 88.6041 30.4089 88.6041C34.5119 88.6041 37.8379 85.2791 37.8379 81.1751C37.8379 80.8571 37.8169 80.5451 37.7769 80.2381L42.5109 58.6571L54.0679 57.2711L52.2789 63.1511L62.1769 65.0701C63.7969 65.3831 64.8649 66.9661 64.5519 68.5871L57.1399 106.83C56.8629 108.26 55.5989 109.26 54.1919 109.26C54.1199 109.26 54.0459 109.244 53.9719 109.239C53.2439 109.343 52.6809 109.204 52.6809 109.204L43.2809 107.355L40.1989 124.46L16.6389 144.823C14.9379 146.184 13.8469 148.276 13.8469 150.624C13.8469 154.728 17.1729 158.054 21.2759 158.054C23.3109 158.054 25.1539 157.236 26.4959 155.909C26.4959 155.909 54.2209 133.859 56.0709 132.318C57.9209 130.778 58.8439 128.465 58.8439 128.465C58.8439 128.465 63.3849 114.517 64.6229 111.591C65.4709 109.587 69.5549 110.512 69.5549 110.512L92.4399 119.143L100.055 148.205C100.137 148.835 100.297 149.439 100.528 150.009H100.53C101.628 152.737 104.3 154.663 107.419 154.663C111.523 154.663 114.849 151.336 114.849 147.233C114.849 146.634 114.777 146.054 114.642 145.497C113.8 140.532 110.038 118.451 109.081 113.671C108.003 108.277 104.46 106.737 104.46 106.737C104.46 106.737 83.1929 95.1821 81.8069 94.4101C80.4199 93.6401 80.7289 91.6361 80.7289 91.6361L84.6589 77.3051L87.4319 83.1611C87.4319 83.1611 89.0509 86.4351 91.5159 86.5521L124.873 87.3721C128.977 87.3721 132.303 84.0461 132.303 79.9411C132.303 76.0511 129.311 72.8601 125.5 72.5411Z" fill="#3A3A3A"/>
<path d="M53.9708 109.644H53.9728C54.0458 109.65 54.1198 109.665 54.1928 109.665C55.5998 109.665 56.8638 108.665 57.1408 107.235L64.5528 68.992C64.8658 67.371 63.7978 65.789 62.1778 65.475L41.9638 61.558L40.6778 67.42L58.0908 70.794L51.8198 103.148L6.51579 94.369L12.7858 62.016L25.3278 64.447L26.1598 58.497L10.9818 55.555C10.7908 55.518 10.6008 55.5 10.4138 55.5C9.00679 55.5 7.74279 56.5 7.46579 57.929L0.0547894 96.173C-0.259211 97.793 0.808789 99.375 2.42979 99.689L53.6258 109.612C53.7398 109.634 53.8548 109.635 53.9708 109.644Z" fill="#F0C42E"/>
<path d="M59.0419 9.48194C59.0419 10.5769 58.1419 11.4719 57.0419 11.4719H19.0149C17.9149 11.4719 17.0149 10.5759 17.0149 9.48194C17.0149 8.38794 17.9149 7.49194 19.0149 7.49194H57.0419C58.1419 7.49294 59.0419 8.38794 59.0419 9.48194Z" fill="#F0C52E"/>
<path d="M57.0039 19.48C57.0039 20.574 56.1039 21.47 55.0039 21.47H32.0439C30.9439 21.47 30.0439 20.574 30.0439 19.48C30.0439 18.385 30.9439 17.49 32.0439 17.49H55.0029C56.1039 17.49 57.0039 18.386 57.0039 19.48Z" fill="#F0C52E"/>
</g>
<defs>
<clipPath id="clip0_2867_233">
<rect width="136" height="164" fill="white" transform="translate(0 0.5)"/>
</clipPath>
</defs>
</svg>

<svg xmlns="http://www.w3.org/2000/svg" width="136" height="165" fill="none"><g clip-path="url(#a)"><path fill="#fff" d="M93.13 39.27c8.12 0 14.95-5.54 16.9-13.05l5.47.81a2.16 2.16 0 0 0 .64-4.27l-5.55-.82v-.68s-.46-6.52-1.08-9.24c-.62-2.72-2.54-3.3-2.54-3.3A111.85 111.85 0 0 0 84.6 6.3c-2.6 0-3.16 1.33-3.16 1.33l-3.15 5-.23.36-.02.05a17.46 17.46 0 0 0 15.1 26.24ZM131.53 78.58 104.8 76.4l-9.24-21.12s-.46-2.77-6.01-8.47c-5.55-5.7-16.8-3.4-16.8-3.4s-23.89 4.48-31.75 6.33c-7.86 1.85-8.16 9.86-8.16 9.86l-.64 4.52-15.17-2.94a2.99 2.99 0 0 0-3.52 2.37L6.1 101.8a3 3 0 0 0 2.37 3.52l51.2 9.92.35.04c-.73.1-1.3-.04-1.3-.04l-9.4-1.85-3.07 17.1-23.56 20.37a7.41 7.41 0 0 0 4.63 13.23 7.4 7.4 0 0 0 5.22-2.15s27.73-22.04 29.58-23.59c1.85-1.54 2.77-3.85 2.77-3.85s4.54-13.95 5.78-16.87c.85-2 4.93-1.08 4.93-1.08l22.89 8.63 7.61 29.06a7.43 7.43 0 1 0 14.59-2.7c-.84-4.97-4.6-27.05-5.56-31.83-1.08-5.4-4.62-6.94-4.62-6.94s-21.27-11.55-22.66-12.33c-1.38-.77-1.08-2.77-1.08-2.77l3.93-14.33 2.78 5.85s1.62 3.28 4.08 3.4l33.36.82a7.43 7.43 0 0 0 .63-14.83ZM60.1 63.3l-1.79 5.88 9.9 1.92L48 67.19l.55-2.5 11.55-1.38Zm-2.25 45.47L12.55 100l6.27-32.35 12.54 2.43-1.62 11.56-.64 4.41v.08l-.03.13a7.43 7.43 0 1 0 14.74.01l2.9-13.22 17.42 3.37-6.28 32.36ZM25.05 17.5h38.03a2 2 0 0 0 2-1.98 2 2 0 0 0-2-2H25.05a2 2 0 0 0-2 2 2 2 0 0 0 2 1.99ZM38.08 23.52a2 2 0 0 0-2 2 2 2 0 0 0 2 1.98h22.96a2 2 0 0 0 2-1.99 2 2 0 0 0-2-1.99H38.08Z"/><path fill="#3A3A3A" d="M87.1 33.23c8.12 0 14.94-5.54 16.9-13.05l5.47.82.31.02a2.16 2.16 0 0 0 .32-4.29l-5.54-.83v-.13l-.01-.55s-.45-6.51-1.08-9.23c-.62-2.72-2.53-3.3-2.53-3.3A111.85 111.85 0 0 0 78.56.25c-2.6 0-3.15 1.34-3.15 1.34l-3.15 5-.01-.01-.22.37-.03.04a17.47 17.47 0 0 0 15.1 26.24ZM125.5 72.54l-26.74-2.17-9.25-21.11s-.46-2.77-6-8.48c-5.56-5.7-16.8-3.39-16.8-3.39s-23.9 4.47-31.75 6.32c-7.86 1.85-8.17 9.86-8.17 9.86l-3.08 22.04-.64 4.4-.01.09-.02.12a7.43 7.43 0 1 0 14.73.01l4.74-21.57 11.56-1.39-1.8 5.88 9.9 1.92a3.01 3.01 0 0 1 2.38 3.52l-7.41 38.24a3.01 3.01 0 0 1-2.95 2.43l-.22-.02c-.73.1-1.29-.04-1.29-.04l-9.4-1.84-3.08 17.1-23.56 20.36a7.41 7.41 0 0 0 4.64 13.23 7.4 7.4 0 0 0 5.22-2.14s27.72-22.05 29.57-23.6c1.85-1.53 2.77-3.84 2.77-3.84s4.54-13.95 5.78-16.88c.85-2 4.93-1.08 4.93-1.08l22.89 8.63 7.62 29.07a7.43 7.43 0 1 0 14.59-2.7c-.85-4.98-4.61-27.06-5.57-31.84-1.08-5.4-4.62-6.93-4.62-6.93S83.19 95.18 81.81 94.4c-1.39-.77-1.08-2.77-1.08-2.77l3.93-14.33 2.77 5.85s1.62 3.28 4.09 3.4l33.35.81a7.43 7.43 0 0 0 .63-14.83Z"/><path fill="#F0C42E" d="m53.97 109.64.22.03c1.41 0 2.67-1 2.95-2.44L64.55 69a3.01 3.01 0 0 0-2.37-3.52l-20.22-3.91-1.28 5.86 17.41 3.37-6.27 32.36-45.3-8.78 6.27-32.35 12.54 2.43.83-5.95-15.18-2.95a2.99 2.99 0 0 0-3.51 2.38L.05 96.17a3 3 0 0 0 2.38 3.52l51.2 9.92c.11.02.22.03.34.03Z"/><path fill="#F0C52E" d="M59.04 9.48a2 2 0 0 1-2 2H19.01a2 2 0 0 1-2-2 2 2 0 0 1 2-1.99h38.03a2 2 0 0 1 2 2ZM57 19.48a2 2 0 0 1-2 1.99H32.04a2 2 0 0 1-2-1.99 2 2 0 0 1 2-1.99H55a2 2 0 0 1 2 1.99Z"/></g><defs><clipPath id="a"><path fill="#fff" d="M0 .5h136v164H0z"/></clipPath></defs></svg>
